X: 1
T: O'Connor's Quick Step
P: piffero primo a0725
%P: piffero primo b0052 in another set
O: Bill Krug
%R: quick-step, polka
F: http://ancients.sudburymuster.org/mus/ssp/pdf/billybudF.pdf
Z: 2019 John Chambers <jc:trillian.mit.edu>
M: 2/4
L: 1/16
K: A
ed |\
c2ec Acec | d2fd fagf | e2a2 a2ga | b2B2 BdcB |\
c2ec Acec | d2fd fagf | e2c2 BdcB | A2c2 A2  :|
|: z2 |\
ABcd e2e2 | fa2f ecA2 | ABcd e2e2 | cA2c B2z2 |\
ABcd e2e2 | fa2f ecA2 | c2ec BdcB | A2c2 A2  :|


